X:1
T:Title
%%score { ( 1 3 ) | 2 }
L:1/8
Q:1/4=92
M:4/4
K:A
V:1 treble nm="Grand Piano"
V:3 treble 
V:2 bass 
V:1
 [CE]>[=C^D] [^CE][Ec] [=DB][CA][CG][CA] | B4 F4 | G>=G ^GA BGEd | c6 z2 | %4
w: W.~Stillman~Martin * * * * * * *||||
 [CE]>[=C^D] [^CE][Ec] [=DB][CA][CG][CA] | [DB]4 [DF]4 | [^DB]>[Dc] [DB][DA] [DG][DF][DG][DA] | %7
w: |||
 [DB]6 z2 | [Ec][CE][CF][CG] [CA]2 [Ec]2 | [FB]<[Fd] [E^A]<[Ec] [DB]4 | BEFE G2 B2 | %11
w: ||||
 [CA]<[Ec] [CA][=CF] [^CE]4 | [Ec][CE][CF][CG] [CA]2 [Ec]2 | [=Ge][Gc][GB]A [Fe]2 [Fd]2 | %14
w: |||
 [FA][FA][FG][FA] [Ae][Ac]Ed | c2 B2 [CA]4 |] %16
w: ||
V:2
 [A,,A,]>[A,,A,] [A,,A,][A,,A,] [A,,A,][A,,A,][A,,A,][A,,A,] | [D,F,D]4 [D,B,D]4 | %2
 [E,B,D]>[E,B,D] [E,B,D][E,F,D] [E,G,D][E,B,D][G,B,D][G,B,E] | [A,E]6 z2 | %4
 [A,,A,]>[A,,A,] [A,,A,][A,,A,] [A,,A,][A,,A,][A,,A,][A,,A,] | [D,F,]4 [D,B,]4 | %6
 [B,,B,]>[B,,B,] [B,,B,][B,,B,] [B,,B,][B,,B,][B,,B,][B,,A,] | [E,G,]6 z2 | %8
 [A,,A,][A,,A,][A,,A,][A,,A,] [A,,A,]2 [A,,A,]2 | [D,F,]<[D,F,] [C,F,]<[C,F,] [B,,F,]4 | %10
 [E,G,D][E,G,D][E,G,D][E,G,D] [E,B,D]2 [E,G,D]2 | [A,,A,]<[A,,A,] [A,,E,][A,,^D,] [A,,E,]4 | %12
 [A,,A,][A,,A,][A,,A,][A,,A,] [A,,A,]2 [A,,A,]2 | [C,A,][C,A,][C,A,][C,A,] [D,A,]2 [D,A,]2 | %14
 [^D,=C][D,C][D,C][E,C] [E,^C][E,E][E,A,C][E,B,E] | [E,A,E]2 [E,G,D]2 [A,,A,]4 |] %16
V:3
 x8 | x8 | x8 | x8 | x8 | x8 | x8 | x8 | x8 | x8 | x8 | x8 | x8 | z2 z =G- G z z2 | x8 | x8 |] %16

